X:1
T:Commit Thy Way
T:Harriet P. Grove
T:Commit Thy Way
T:Public Domain
C:Harriet P. Grove
Z:Public Domain
%%score ( 1 2 ) ( 3 4 )
L:1/8
M:3/2
K:G
V:1 treble 
V:2 treble 
V:3 bass 
V:4 bass 
V:1
 [GB]2 [GB]2 [GB]2 | [DG]6 [DF]2 [EG]2 [Fd]2 | [Gd]8 [=FG]4 | ([EG]4 [CE]4) ([DF]2 [EG]2) | %4
w: 1.~Com- mit thy|way, and day by|day, The|Lord * shall *|
w: 2.~Com- mit thy|way; our hearts o-|bey, And|God * doth *|
 [B,D]8 [GB]4 | [FB]2 [FA]2 [FA]6 [FB]2 | [FA]2 [EG]2 [EG]6 [DG]2 | [^CG]6 [CG]2 [CF]2 [CE]2 | %8
w: lead. And|He shall trace, with|ten- der grace, Thy|path— ’tis all we|
w: lead; And|at the last shall|bring to pass All|that the heart shall|
 [DA]8 [CD]4 | (B,2 E2 [Gd]4) [Fc]4 | (G4 =F4) ([EA]2 [_Ec]2) | (D4 G2) [GB]2 [EB]2 [FA]2 | G8 |] %13
w: need. For|love * * shall|Shall * crown *|life * in- deed. *||
w: plead. For|love * * has|Has * crowned *|life * in- deed. *||
V:2
 x6 | x12 | x12 | x12 | x12 | x12 | x12 | x12 | x12 | D4 x8 | B8 x4 | B6 x6 | G8 |] %13
w: |||||||||crown,|our|||
w: |||||||||crowned,|our|||
V:3
 [G,D]2 [G,D]2 [G,D]2 | [G,B,]6 [G,B,]2 [D,D]2 [D,C]2 | [G,B,]8 [G,D]4 | (C4 G,4) [C,G,]4 | %4
 G,8 [G,D]4 | [D,D]2 [D,C]2 [D,C]6 [D,D]2 | [E,C]2 [E,B,]2 [E,B,]6 [E,B,]2 | %7
 [A,,A,]6 [A,,A,]2 A,2 [G,A,]2 | ([F,A,]4 [D,F,]4) [E,G,]2 [F,A,]2 | G,4 B,4 [A,C]4 | %10
 (D4 G,4) [C,G,]4 | ([D,G,]2 [D,B,]2 [D,D]4) [D,D]4 | [G,B,]8 |] %13
V:4
 x6 | x12 | x12 | C,8 x4 | G,8 x4 | x12 | x12 | x8 A,2 x2 | x12 | B,8 x4 | G,8 x4 | x12 | x8 |] %13

